X:1
T:Title
%%score { ( 1 3 4 ) | 2 }
L:1/8
M:4/4
K:Bb
V:1 treble nm="Grand Piano"
V:3 treble 
V:4 treble 
V:2 bass 
V:1
 z4 z2[Q:1/4=108] [DF]2 | [DF]2 [DG]2 [DA]2 [DB]2 | z4 [Gc]4 | B2 A2 E2 G2 | [DF]6 D2 | %5
 D2 G2 G2 [^FA]2 | [GB]3 [^FA] G2 d2 | [=Ec]2 [EG]2 [EA]2 [EB]2 | [Ec]6 [EF]2 | %9
 [DF]2 [DG]2 [DA]2 [DB]2 | z4 [Gc]4 | B3 [^FA] [GB]2 [Gc]2 | [^Fd]6 [Fd]2 | [Fe]3 [Fd] [Gc]2 G2 | %14
 B2 A2 G2 A2 | c8 |[M:3/4] [DB]6 |[M:1/4] [Fd]2 |[M:4/4] [Fd]2 [DB]2 [Ge]2 [Fd]2 | %19
 [=Ed] [Ec]3 z2 [Ec][Ec] | c3 =B c2 d2 | [DB]6 B2 | B2 G2 [^Fd]2 [Fc]2 | c3 B B2 B2 | %24
 [=Ec]2 [Ed]2 [Ec]2 G2 |[M:9/8] c6- c z z |[M:4/4] [Fd]2 [DB]2 [Ge]2 [Fd]2 | %27
 [=Ed] [Ec]3 z2 [Ec][Ec] | c2 =B2 c2 d2 | [DB]6 F2 | [=EG]2 A2 B2 c2 | d2 [_Af]2 [GB]2 d2 | c8 | %33
[M:9/8] [DB]6- [DB]2- [DB]/ z/ |] %34
V:2
 z4 z2 [B,,B,]2 | [B,,B,]2 [B,,B,]2 [B,,F,]2 [B,,F,]2 | [C,A,]2 [D,B,]2 [E,B,]2 =E,2 | %3
 [F,CE]2 [F,CE]2 [F,A,C]2 [F,A,E]2 | [B,,B,]6 [G,B,]2 | [G,B,]2 [G,B,D]2 [G,B,D]2 [D,D]2 | %6
 [G,D]3 [D,C] [G,B,]2 [G,B,F]2 | [C,G,]2 [C,C]2 [C,C]2 [C,C]2 | [F,A,]6 [F,A,]2 | %9
 [B,,B,]2 [B,,B,]2 [B,,F,]2 [B,,F,]2 | [C,A,]2 [D,B,]2 [E,B,]2 E,2 | %11
 [G,B,G]3 [D,D] [G,D]2 [E,G,]2 | [D,A,]6 [D,A,]2 | [C,A,]3 [D,B,] [E,B,]2 [=E,C]2 | %14
 [F,CE]2 [F,CE]2 [F,CE]2 [F,CE]2 | [F,A,E]8 |[M:3/4] [B,,B,]6 |[M:1/4] [B,,B,]2 | %18
[M:4/4] [B,,B,]2 [B,,B,]2 [B,,B,]2 [B,,B,]2 | [C,G,] [C,G,]3 z2 [C,G,][C,G,] | %20
 [F,A,E]3 [F,A,D] [F,A,E]2 [F,A,F]2 | [B,,B,]6[K:treble] [G,DG]2 | %22
 [G,DG]2[K:bass] [G,B,]2 [D,A,]2 [D,D]2 | [G,DG]3 [G,DG] [G,DG]2 [G,DF]2 | %24
 [C,C]2 [C,G,]2 [C,C]2[K:treble] [B,C=E]2 | %25
[M:9/8] [A,CF]2[K:bass] [G,B,]- [G,B,] [F,A,]2- [F,A,] [B,,B,]2 | %26
[M:4/4] [B,,B,]2 [B,,B,]2 [B,,B,]2 [B,,B,]2 | [C,G,] [C,G,]3 z2 [C,G,][C,G,] | %28
 [F,A,E]2 [F,_A,D]2 [F,=A,E]2 [F,A,F]2 | [B,,B,]6 [E,B,]2 | %30
 [C,B,]2 [F,CE]2[K:treble] [G,B,D]2 [F,A,F]2 | [B,F]2[K:bass] [D,B,]2 [E,B,]2 [F,B,F]2 | %32
 [G,B,=E]4 [F,A,]4 |[M:9/8] [B,,B,]8- [B,,B,] |] %34
V:3
 x8 | x8 | [Fe]2 [Fd]2 z2 z G | x8 | x8 | x8 | x8 | x8 | x8 | x8 | [Fe]2 [Fd]2 z2 z G | x8 | x8 | %13
 x8 | x8 | x8 |[M:3/4] x6 |[M:1/4] x2 |[M:4/4] x8 | x8 | x8 | x8 | x8 | x8 | x8 | %25
[M:9/8] z2 =E- E _E2- E [Fd]2 |[M:4/4] x8 | x8 | x8 | x8 | x8 | x8 | z4 E4 |[M:9/8] x9 |] %34
V:4
 x8 | x8 | z4 z2 C2 | x8 | x8 | x8 | x8 | x8 | x8 | x8 | z4 z2 C2 | x8 | x8 | x8 | x8 | x8 | %16
[M:3/4] x6 |[M:1/4] x2 |[M:4/4] x8 | x8 | x8 | x8 | x8 | x8 | x8 |[M:9/8] x9 |[M:4/4] x8 | x8 | %28
 x8 | x8 | x8 | x8 | x8 |[M:9/8] x9 |] %34

